X: 1
T: D\"odens Vals
T: (Farfarsvalsen)
C: Trad
R: waltz
S: http://www.nyckelharpa.org/archive/written-music/american-allspel-list/ 2022/9/18
Z: 2022 John Chambers <jc:trillian.mit.edu>
M: 3/4
L: 1/8
Q: 1/4=180
K: C
|:\
g3 g g2 | g2 f2 e2  | g3 g g2 | g2 f2 e2 |\
a3 a a2 | a2 b2 c'2 | g3 g g2 | g2 f2 e2 |
f3 f f2 | f2 e2 d2  | c3 c c2 | c2 B2 A2 |\
G3 G G2 | G2 A2 B2  | (ed) (Bc) ed |[1 c6 :| c4 |]
|: c2 |\
B2 (3(dBd) gB | (3(dBd) (gB) dg | c2 (3(ece) gc | (3(ece) (gc) eg |\
d2 (3(fdf) ad | (3(fdf) (ad) fa | d2 (3(gdg) bd | (3(gdg) (bd) fb |
B2 (3(dBd) gB | (3(dBd) (gB) dg | c2 (3(ece) gc | (3(ece) (gc) eg |\
d2 (3(fdf) ad | (3(fdf) (ad) fa | g2 b2 a2 |[1 g4 :|[2 g6 |]
